wp/wp-content/themes/tcs-responsive/i/nav/community.svg

<?xml version="1.0" encoding="UTF-8" standalone="no"?>
<svg width="32px" height="32px" viewBox="0 0 32 32" version="1.1" xmlns="http://www.w3.org/2000/svg" xmlns:xlink="http://www.w3.org/1999/xlink" xmlns:sketch="http://www.bohemiancoding.com/sketch/ns">
    <!-- Generator: Sketch 3.3.3 (12081) - http://www.bohemiancoding.com/sketch -->
    <title>nav/community</title>
    <desc>Created with Sketch.</desc>
    <defs></defs>
    <g id="Page-1" stroke="none" stroke-width="1" fill="none" fill-rule="evenodd" sketch:type="MSPage">
        <g id="nav/community" sketch:type="MSArtboardGroup" stroke="#F6F6F6" stroke-width="1.2" stroke-linecap="round" stroke-linejoin="round">
            <path d="M7.4288,3.6885 C8.3748,4.3875 9.4288,4.9585 10.1248,6.1245 C10.7328,7.1435 11.7838,10.3085 10.5458,11.9095 C9.1448,13.7195 5.0908,14.3315 5.0908,15.9995 C5.0908,17.2555 6.8688,18.6885 7.8178,20.0905 C9.2458,22.1985 8.5968,24.2415 7.8178,25.5455 C7.4148,26.2215 6.7278,26.7625 6.0128,27.1915" id="Stroke-129" sketch:type="MSShapeGroup"></path>
            <path d="M27.8154,6.7579 C24.8714,8.1689 22.4164,9.9169 20.7824,9.4999 C18.9304,9.0279 19.0904,7.4079 18.0004,5.7499 C17.1814,4.5059 14.6364,3.6549 14.6364,2.3639 C14.6364,1.8579 14.7014,1.4079 14.8304,1.0069" id="Stroke-131" sketch:type="MSShapeGroup"></path>
            <path d="M1,16 C1,7.716 7.716,1 16,1 C24.284,1 31,7.716 31,16 C31,24.284 24.284,31 16,31 C7.716,31 1,24.284 1,16 L1,16 L1,16 Z" id="Stroke-133" sketch:type="MSShapeGroup"></path>
            <path d="M25.564798,17.232 C25.621798,21.437 19.764798,27.355 17.363798,25.545 C15.3127982,24 17.124798,23.063 16.0197982,17.232 C15.5987982,15.012 18.155798,13.141 20.791798,13.141 C23.427798,13.141 25.533798,14.973 25.564798,17.232 L25.564798,17.232 L25.564798,17.232 Z" id="Stroke-135" sketch:type="MSShapeGroup"></path>
        </g>
    </g>
</svg>

<svg xmlns="http://www.w3.org/2000/svg" width="32" height="32" viewBox="0 0 32 32"><g fill="none" fill-rule="evenodd" stroke="#FFF" stroke-width="2" stroke-linecap="round" stroke-linejoin="round"><path d="M7.429 3.688c.946.7 2 1.27 2.696 2.437.608 1.019 1.659 4.184.42 5.784-1.4 1.81-5.454 2.422-5.454 4.09 0 1.257 1.778 2.69 2.727 4.091 1.428 2.108.779 4.151 0 5.456-.403.675-1.09 1.216-1.805 1.646M27.815 6.758c-2.944 1.41-5.399 3.159-7.033 2.742C18.93 9.028 19.09 7.408 18 5.75c-.819-1.244-3.364-2.095-3.364-3.386 0-.506.065-.956.194-1.357"/><path d="M1 16C1 7.716 7.716 1 16 1c8.284 0 15 6.716 15 15 0 8.284-6.716 15-15 15-8.284 0-15-6.716-15-15z"/><path d="M25.565 17.232c.057 4.205-5.8 10.123-8.201 8.313-2.051-1.545-.24-2.482-1.344-8.313-.421-2.22 2.136-4.091 4.772-4.091s4.742 1.832 4.773 4.091z"/></g></svg>
